X:1
T: Lord Duncan's Flag
C:Nathaniel Gow
R:Strathspey
Q: 128
K:Am
M:4/4
L:1/16
|:Bc|G2F2 E2c2 AGFE G4|C2c2 E2c2 A2G2 F2E2|A4 c3d e2E2 A4|A3B c2d2 c3B ABcd|
e2e2 g3e d2e2 c4|C2c2 E2c2 A2G2 F2E2|A4 C3B, A,2E2 A2B2|c3e dcBc A4 A2g2|
a3g e2c'a agfe d3e|c2c2 e3d c3A G4|AA3 c3G A2a2 g2f2|e3c e3d c2A2 A2B2|
cc3 g3e d3e c4|A2Bc AGFE c4 G4|A4 C3B, A,2E2 A2B2|c3e dcBc A4 A2:|
